X: 1540
T: Her Golden Hair Hung Down Her Neck
B: australian traditional tunes wiki
M:4/4
L:1/8
R: Schottische
Q: 1/4=100
K:D
V:1 
A|:"D"d>c e>c "G" (3BcB "D"F>A| (3dcd e>d "G"B>c d>e|"D"f>A "A7"d>f e>c B>A|"D"d6 B>c:|
||"D"f3f/ A/ f3f/ A/|e2d>BA3A/ G/|FA A>A d>c e>d|"A7"c6B>c|
"D"d2 "A7"(3cdc"G"B2 "D"A>c|"D"d2 "A7"(3cdc "G"B>A "D"d>e|f>A d>f "A7"e>c B>A|"D"d6z2||
% abcbook-tune_id 6342d53af5e203a5ef149b93


% abcbook-boost 0
% abcbook-tablature 
% abcbook-transpose 
% abcbook-lastupdated 1665324370072
% abcbook-soundfonts 
% abcbook-repeats 1
% NFF Book 2007

